X: 1081
T: The Humors of Ballinafauna
R:double jig
N:"collected by F.O'Neill"
B:O'Neill's 1081
Z:Transcribed by henrik.norbeck@mailbox.swipnet.se
M:6/8
L:1/8
K:Am
G|E2A A2B|c2A BGE|GAG EDE|GAG GED|
E^F^G A2B|c2A Bcd|ege dB^G|A3 A2:|
^g|a2e a2e|abc' bab|=g2e g2e|edc BAG|
a2e a2e|abc' bab|gfe dB^G|A3 A2:|


